Newaita-dark/.places-darknight/24/user-desktop.svg

<?xml version="1.0" encoding="UTF-8"?>
<svg xmlns="http://www.w3.org/2000/svg" xmlns:xlink="http://www.w3.org/1999/xlink" width="24pt" height="24pt" viewBox="0 0 24 24" version="1.1">
<defs>
<linearGradient id="linear0" gradientUnits="userSpaceOnUse" x1="254" y1="233.5" x2="254" y2="254.666672" gradientTransform="matrix(0.0468795,0,0,0.0468795,-0.0000028613,10.079087)">
<stop offset="0" style="stop-color:rgb(0%,0%,0%);stop-opacity:0.27451;"/>
<stop offset="1" style="stop-color:rgb(0%,0%,0%);stop-opacity:0;"/>
</linearGradient>
<radialGradient id="radial0" gradientUnits="userSpaceOnUse" cx="450.908936" cy="189.579361" fx="450.908936" fy="189.579361" r="21.166656" gradientTransform="matrix(0.000000130628,-0.0585994,-0.105479,-0.0000000761539,40.090268,47.696498)">
<stop offset="0" style="stop-color:rgb(0%,0%,0%);stop-opacity:0.313725;"/>
<stop offset="0.222222" style="stop-color:rgb(0%,0%,0%);stop-opacity:0.27451;"/>
<stop offset="1" style="stop-color:rgb(0%,0%,0%);stop-opacity:0;"/>
</radialGradient>
<radialGradient id="radial1" gradientUnits="userSpaceOnUse" cx="450.908936" cy="189.579361" fx="450.908936" fy="189.579361" r="21.166656" gradientTransform="matrix(-0.000000130628,0.0585994,0.105479,0.0000000761539,-16.275496,-5.645611)">
<stop offset="0" style="stop-color:rgb(0%,0%,0%);stop-opacity:0.313725;"/>
<stop offset="0.222222" style="stop-color:rgb(0%,0%,0%);stop-opacity:0.27451;"/>
<stop offset="1" style="stop-color:rgb(0%,0%,0%);stop-opacity:0;"/>
</radialGradient>
<radialGradient id="radial2" gradientUnits="userSpaceOnUse" cx="450.908936" cy="189.579361" fx="450.908936" fy="189.579361" r="21.166656" gradientTransform="matrix(-0.000000130628,-0.0585994,0.105479,-0.0000000761539,-16.275496,47.696498)">
<stop offset="0" style="stop-color:rgb(0%,0%,0%);stop-opacity:0.313725;"/>
<stop offset="0.222222" style="stop-color:rgb(0%,0%,0%);stop-opacity:0.27451;"/>
<stop offset="1" style="stop-color:rgb(0%,0%,0%);stop-opacity:0;"/>
</radialGradient>
<radialGradient id="radial3" gradientUnits="userSpaceOnUse" cx="450.908936" cy="189.579361" fx="450.908936" fy="189.579361" r="21.166656" gradientTransform="matrix(0.000000130628,0.0585994,-0.105479,0.0000000761539,40.090267,-5.645611)">
<stop offset="0" style="stop-color:rgb(0%,0%,0%);stop-opacity:0.313725;"/>
<stop offset="0.222222" style="stop-color:rgb(0%,0%,0%);stop-opacity:0.27451;"/>
<stop offset="1" style="stop-color:rgb(0%,0%,0%);stop-opacity:0;"/>
</radialGradient>
<linearGradient id="linear1" gradientUnits="userSpaceOnUse" x1="270.837128" y1="-141.414581" x2="270.837128" y2="-25.791676" gradientTransform="matrix(0.0515983,0,0,0.153917,-2.973377,24.962836)">
<stop offset="0" style="stop-color:rgb(45.882353%,45.882353%,45.882353%);stop-opacity:1;"/>
<stop offset="1" style="stop-color:rgb(38.039216%,38.039216%,38.039216%);stop-opacity:1;"/>
</linearGradient>
<linearGradient id="linear2" gradientUnits="userSpaceOnUse" x1="1120" y1="1694.291138" x2="1120" y2="894.291016" gradientTransform="matrix(0.0124035,0,0,0.0124035,0,0.0102592)">
<stop offset="0" style="stop-color:rgb(25.882353%,25.882353%,25.882353%);stop-opacity:1;"/>
<stop offset="1" style="stop-color:rgb(38.039216%,38.039216%,38.039216%);stop-opacity:1;"/>
</linearGradient>
<linearGradient id="linear3" gradientUnits="userSpaceOnUse" x1="444.5" y1="185.875" x2="444.5" y2="148.833328" gradientTransform="matrix(0.5,0,0,0.571428,-105.833473,106.337929)">
<stop offset="0" style="stop-color:rgb(45.882353%,45.882353%,45.882353%);stop-opacity:1;"/>
<stop offset="1" style="stop-color:rgb(38.039216%,38.039216%,38.039216%);stop-opacity:1;"/>
</linearGradient>
<linearGradient id="linear4" gradientUnits="userSpaceOnUse" x1="444.5" y1="185.875" x2="444.5" y2="148.833328" gradientTransform="matrix(0.5,0,0,0.571428,-21.166807,106.119087)">
<stop offset="0" style="stop-color:rgb(45.882353%,45.882353%,45.882353%);stop-opacity:1;"/>
<stop offset="1" style="stop-color:rgb(38.039216%,38.039216%,38.039216%);stop-opacity:1;"/>
</linearGradient>
<linearGradient id="linear5" gradientUnits="userSpaceOnUse" x1="444.5" y1="185.875" x2="444.5" y2="148.833328" gradientTransform="matrix(0.5,0,0,0.571428,169.333206,106.337929)">
<stop offset="0" style="stop-color:rgb(45.882353%,45.882353%,45.882353%);stop-opacity:1;"/>
<stop offset="1" style="stop-color:rgb(38.039216%,38.039216%,38.039216%);stop-opacity:1;"/>
</linearGradient>
</defs>
<g id="surface1">
<path style=" stroke:none;fill-rule:nonzero;fill:url(#linear0);" d="M 3.472656 21.027344 L 20.339844 21.027344 L 20.339844 22.019531 L 3.472656 22.019531 Z M 3.472656 21.027344 "/>
<path style=" stroke:none;fill-rule:nonzero;fill:url(#radial0);" d="M 20.339844 21.027344 L 22.328125 21.027344 L 22.328125 20.03125 L 20.339844 20.03125 Z M 20.339844 21.027344 "/>
<path style=" stroke:none;fill-rule:nonzero;fill:url(#radial1);" d="M 3.472656 21.027344 L 1.488281 21.027344 L 1.488281 22.019531 L 3.472656 22.019531 Z M 3.472656 21.027344 "/>
<path style=" stroke:none;fill-rule:nonzero;fill:url(#radial2);" d="M 3.472656 21.027344 L 1.488281 21.027344 L 1.488281 20.03125 L 3.472656 20.03125 Z M 3.472656 21.027344 "/>
<path style=" stroke:none;fill-rule:nonzero;fill:url(#radial3);" d="M 20.339844 21.027344 L 22.328125 21.027344 L 22.328125 22.019531 L 20.339844 22.019531 Z M 20.339844 21.027344 "/>
<path style=" stroke:none;fill-rule:nonzero;fill:url(#linear1);" d="M 2.394531 3.195312 L 21.421875 3.195312 C 21.921875 3.195312 22.328125 3.617188 22.328125 4.132812 L 22.328125 20.054688 C 22.328125 20.574219 21.921875 20.992188 21.421875 20.992188 L 2.394531 20.992188 C 1.894531 20.992188 1.488281 20.574219 1.488281 20.054688 L 1.488281 4.132812 C 1.488281 3.617188 1.894531 3.195312 2.394531 3.195312 Z M 2.394531 3.195312 "/>
<path style=" stroke:none;fill-rule:nonzero;fill:rgb(0%,0%,0%);fill-opacity:0.235294;" d="M 2.480469 21.035156 C 1.929688 21.035156 1.488281 20.59375 1.488281 20.042969 L 1.488281 19.785156 C 1.488281 20.335938 1.929688 20.777344 2.480469 20.777344 L 21.335938 20.777344 C 21.882812 20.777344 22.328125 20.335938 22.328125 19.785156 L 22.328125 20.042969 C 22.328125 20.59375 21.882812 21.035156 21.335938 21.035156 Z M 2.480469 21.035156 "/>
<path style=" stroke:none;fill-rule:nonzero;fill:url(#linear2);" d="M 4.960938 18.058594 C 4.410156 18.058594 3.96875 18.5 3.96875 19.050781 L 3.96875 20.539062 C 3.96875 20.8125 4.191406 21.035156 4.464844 21.035156 L 19.347656 21.035156 C 19.625 21.035156 19.84375 20.8125 19.84375 20.539062 L 19.84375 19.050781 C 19.84375 18.5 19.402344 18.058594 18.851562 18.058594 Z M 4.960938 18.058594 "/>
<path style="fill-rule:nonzero;fill:url(#linear3);stroke-width:3;stroke-linecap:round;stroke-linejoin:miter;stroke:rgb(12.941177%,12.941177%,12.941177%);stroke-opacity:1;stroke-miterlimit:4;" d="M 116.40555 191.37786 C 122.238327 191.37786 126.987873 196.127406 126.987873 201.960182 C 126.987873 207.792959 122.238327 212.542505 116.40555 212.542505 C 110.572774 212.542505 105.823228 207.792959 105.823228 201.960182 C 105.823228 196.127406 110.572774 191.37786 116.40555 191.37786 Z M 116.40555 191.37786 " transform="matrix(0.0468795,0,0,0.0468795,0,10.079087)"/>
<path style="fill-rule:nonzero;fill:rgb(41.960784%,41.960784%,41.960784%);fill-opacity:1;stroke-width:3;stroke-linecap:round;stroke-linejoin:miter;stroke:rgb(12.941177%,12.941177%,12.941177%);stroke-opacity:1;stroke-miterlimit:4;" d="M 158.734842 191.37786 C 164.567618 191.37786 169.317164 196.127406 169.317164 201.960182 C 169.317164 207.792959 164.567618 212.542505 158.734842 212.542505 C 152.902065 212.542505 148.152519 207.792959 148.152519 201.960182 C 148.152519 196.127406 152.902065 191.37786 158.734842 191.37786 Z M 158.734842 191.37786 " transform="matrix(0.0468795,0,0,0.0468795,0,10.079087)"/>
<path style="fill-rule:nonzero;fill:url(#linear4);stroke-width:3;stroke-linecap:round;stroke-linejoin:miter;stroke:rgb(12.941177%,12.941177%,12.941177%);stroke-opacity:1;stroke-miterlimit:4;" d="M 201.064133 191.127883 C 206.896909 191.127883 211.646455 195.87743 211.646455 201.710206 C 211.646455 207.626308 206.896909 212.292529 201.064133 212.292529 C 195.231356 212.292529 190.48181 207.626308 190.48181 201.710206 C 190.48181 195.87743 195.231356 191.127883 201.064133 191.127883 Z M 201.064133 191.127883 " transform="matrix(0.0468795,0,0,0.0468795,0,10.079087)"/>
<path style="fill-rule:nonzero;fill:url(#linear5);stroke-width:3;stroke-linecap:round;stroke-linejoin:miter;stroke:rgb(12.941177%,12.941177%,12.941177%);stroke-opacity:1;stroke-miterlimit:4;" d="M 391.545943 191.37786 C 397.462044 191.37786 402.128265 196.127406 402.128265 201.960182 C 402.128265 207.792959 397.462044 212.542505 391.545943 212.542505 C 385.713166 212.542505 380.96362 207.792959 380.96362 201.960182 C 380.96362 196.127406 385.713166 191.37786 391.545943 191.37786 Z M 391.545943 191.37786 " transform="matrix(0.0468795,0,0,0.0468795,0,10.079087)"/>
<path style=" stroke:none;fill-rule:nonzero;fill:rgb(100%,100%,100%);fill-opacity:0.392157;" d="M 4.960938 18.058594 C 4.410156 18.058594 3.96875 18.5 3.96875 19.050781 L 3.96875 19.289062 C 3.96875 18.738281 4.410156 18.296875 4.960938 18.296875 L 18.851562 18.296875 C 19.402344 18.296875 19.84375 18.738281 19.84375 19.289062 L 19.84375 19.050781 C 19.84375 18.5 19.402344 18.058594 18.851562 18.058594 Z M 4.960938 18.058594 "/>
<path style=" stroke:none;fill-rule:nonzero;fill:rgb(0%,0%,0%);fill-opacity:0.235294;" d="M 3.96875 20.292969 L 3.96875 20.539062 C 3.96875 20.8125 4.191406 21.035156 4.464844 21.035156 L 19.347656 21.035156 C 19.625 21.035156 19.84375 20.8125 19.84375 20.539062 L 19.84375 20.292969 C 19.84375 20.566406 19.625 20.789062 19.347656 20.789062 L 4.464844 20.789062 C 4.191406 20.789062 3.96875 20.566406 3.96875 20.292969 Z M 3.96875 20.292969 "/>
<path style=" stroke:none;fill-rule:nonzero;fill:rgb(12.941177%,12.941177%,12.941177%);fill-opacity:1;" d="M 4.960938 17.988281 C 4.375 17.988281 3.898438 18.464844 3.898438 19.050781 L 3.898438 20.539062 C 3.898438 20.851562 4.152344 21.105469 4.464844 21.105469 L 19.347656 21.105469 C 19.660156 21.105469 19.914062 20.851562 19.914062 20.539062 L 19.914062 19.050781 C 19.914062 18.464844 19.441406 17.988281 18.851562 17.988281 Z M 4.960938 18.128906 L 18.851562 18.128906 C 19.367188 18.128906 19.773438 18.539062 19.773438 19.050781 L 19.773438 20.539062 C 19.773438 20.777344 19.585938 20.964844 19.347656 20.964844 L 4.464844 20.964844 C 4.226562 20.964844 4.039062 20.777344 4.039062 20.539062 L 4.039062 19.050781 C 4.039062 18.539062 4.449219 18.128906 4.960938 18.128906 Z M 4.960938 18.128906 "/>
<path style=" stroke:none;fill-rule:nonzero;fill:rgb(100%,100%,100%);fill-opacity:0.392157;" d="M 2.480469 3.222656 C 1.929688 3.222656 1.488281 3.664062 1.488281 4.214844 L 1.488281 4.472656 C 1.488281 3.921875 1.929688 3.480469 2.480469 3.480469 L 21.335938 3.480469 C 21.882812 3.480469 22.328125 3.921875 22.328125 4.472656 L 22.328125 4.214844 C 22.328125 3.664062 21.882812 3.222656 21.335938 3.222656 Z M 2.480469 3.222656 "/>
<path style=" stroke:none;fill-rule:nonzero;fill:rgb(12.941177%,12.941177%,12.941177%);fill-opacity:1;" d="M 2.480469 3.09375 C 1.894531 3.09375 1.417969 3.570312 1.417969 4.15625 L 1.417969 20.03125 C 1.417969 20.621094 1.894531 21.097656 2.480469 21.097656 L 21.335938 21.097656 C 21.921875 21.097656 22.398438 20.621094 22.398438 20.03125 L 22.398438 4.15625 C 22.398438 3.570312 21.921875 3.09375 21.335938 3.09375 Z M 2.480469 3.234375 L 21.335938 3.234375 C 21.847656 3.234375 22.257812 3.644531 22.257812 4.15625 L 22.257812 20.03125 C 22.257812 20.546875 21.847656 20.957031 21.335938 20.957031 L 2.480469 20.957031 C 1.96875 20.957031 1.558594 20.546875 1.558594 20.03125 L 1.558594 4.15625 C 1.558594 3.644531 1.96875 3.234375 2.480469 3.234375 Z M 2.480469 3.234375 "/>
</g>
</svg>

<svg xmlns="http://www.w3.org/2000/svg" width="32" height="32" viewBox="0 0 24 24"><defs><linearGradient id="a" gradientUnits="userSpaceOnUse" x1="254" y1="233.5" x2="254" y2="254.667" gradientTransform="matrix(.04688 0 0 .04688 0 10.08)"><stop offset="0" stop-opacity=".275"/><stop offset="1" stop-opacity="0"/></linearGradient><radialGradient id="b" gradientUnits="userSpaceOnUse" cx="450.909" cy="189.579" fx="450.909" fy="189.579" r="21.167" gradientTransform="matrix(0 -.0586 -.10548 0 40.09 47.696)"><stop offset="0" stop-opacity=".314"/><stop offset=".222" stop-opacity=".275"/><stop offset="1" stop-opacity="0"/></radialGradient><radialGradient id="c" gradientUnits="userSpaceOnUse" cx="450.909" cy="189.579" fx="450.909" fy="189.579" r="21.167" gradientTransform="matrix(0 .0586 .10548 0 -16.275 -5.646)"><stop offset="0" stop-opacity=".314"/><stop offset=".222" stop-opacity=".275"/><stop offset="1" stop-opacity="0"/></radialGradient><radialGradient id="d" gradientUnits="userSpaceOnUse" cx="450.909" cy="189.579" fx="450.909" fy="189.579" r="21.167" gradientTransform="matrix(0 -.0586 .10548 0 -16.275 47.696)"><stop offset="0" stop-opacity=".314"/><stop offset=".222" stop-opacity=".275"/><stop offset="1" stop-opacity="0"/></radialGradient><radialGradient id="e" gradientUnits="userSpaceOnUse" cx="450.909" cy="189.579" fx="450.909" fy="189.579" r="21.167" gradientTransform="matrix(0 .0586 -.10548 0 40.09 -5.646)"><stop offset="0" stop-opacity=".314"/><stop offset=".222" stop-opacity=".275"/><stop offset="1" stop-opacity="0"/></radialGradient><linearGradient id="f" gradientUnits="userSpaceOnUse" x1="270.837" y1="-141.415" x2="270.837" y2="-25.792" gradientTransform="matrix(.0516 0 0 .15392 -2.973 24.963)"><stop offset="0" stop-color="#757575"/><stop offset="1" stop-color="#616161"/></linearGradient><linearGradient id="g" gradientUnits="userSpaceOnUse" x1="1120" y1="1694.291" x2="1120" y2="894.291" gradientTransform="matrix(.0124 0 0 .0124 0 .01)"><stop offset="0" stop-color="#424242"/><stop offset="1" stop-color="#616161"/></linearGradient><linearGradient id="h" gradientUnits="userSpaceOnUse" x1="444.5" y1="185.875" x2="444.5" y2="148.833" gradientTransform="matrix(.5 0 0 .57143 -105.833 106.338)"><stop offset="0" stop-color="#757575"/><stop offset="1" stop-color="#616161"/></linearGradient><linearGradient id="i" gradientUnits="userSpaceOnUse" x1="444.5" y1="185.875" x2="444.5" y2="148.833" gradientTransform="matrix(.5 0 0 .57143 -21.167 106.12)"><stop offset="0" stop-color="#757575"/><stop offset="1" stop-color="#616161"/></linearGradient><linearGradient id="j" gradientUnits="userSpaceOnUse" x1="444.5" y1="185.875" x2="444.5" y2="148.833" gradientTransform="matrix(.5 0 0 .57143 169.333 106.338)"><stop offset="0" stop-color="#757575"/><stop offset="1" stop-color="#616161"/></linearGradient></defs><path d="M3.473 21.027H20.34v.993H3.473zm0 0" fill="url(#a)"/><path d="M20.34 21.027h1.988v-.996H20.34zm0 0" fill="url(#b)"/><path d="M3.473 21.027H1.488v.993h1.985zm0 0" fill="url(#c)"/><path d="M3.473 21.027H1.488v-.996h1.985zm0 0" fill="url(#d)"/><path d="M20.34 21.027h1.988v.993H20.34zm0 0" fill="url(#e)"/><path d="M2.395 3.195h19.027c.5 0 .906.422.906.938v15.922c0 .52-.406.937-.906.937H2.395c-.5 0-.907-.418-.907-.937V4.133c0-.516.407-.938.907-.938zm0 0" fill="url(#f)"/><path d="M2.48 21.035a.989.989 0 0 1-.992-.992v-.258c0 .55.442.992.992.992h18.856a.991.991 0 0 0 .992-.992v.258c0 .55-.445.992-.992.992zm0 0" fill-opacity=".235"/><path d="M4.96 18.059a.989.989 0 0 0-.991.992v1.488c0 .273.222.496.496.496h14.883a.494.494 0 0 0 .496-.496v-1.488a.989.989 0 0 0-.992-.992zm0 0" fill="url(#g)"/><path d="M116.406 191.378c5.832 0 10.582 4.75 10.582 10.582 0 5.833-4.75 10.583-10.582 10.583-5.833 0-10.583-4.75-10.583-10.583s4.75-10.582 10.583-10.582zm0 0" transform="matrix(.04688 0 0 .04688 0 10.08)" fill="url(#h)" stroke-width="3" stroke-linecap="round" stroke="#212121"/><path d="M7.441 19.05a.497.497 0 1 1-.001.994.497.497 0 0 1 .001-.993zm0 0" fill="#6b6b6b" stroke-width=".14064" stroke-linecap="round" stroke="#212121"/><path d="M201.064 191.128c5.833 0 10.582 4.75 10.582 10.582 0 5.916-4.75 10.583-10.582 10.583a10.544 10.544 0 0 1-10.582-10.583c0-5.833 4.75-10.582 10.582-10.582zm0 0" transform="matrix(.04688 0 0 .04688 0 10.08)" fill="url(#i)" stroke-width="3" stroke-linecap="round" stroke="#212121"/><path d="M391.546 191.378c5.916 0 10.582 4.75 10.582 10.582a10.544 10.544 0 0 1-10.582 10.583c-5.833 0-10.582-4.75-10.582-10.583s4.75-10.582 10.582-10.582zm0 0" transform="matrix(.04688 0 0 .04688 0 10.08)" fill="url(#j)" stroke-width="3" stroke-linecap="round" stroke="#212121"/><path d="M4.96 18.059a.989.989 0 0 0-.991.992v.238c0-.55.441-.992.992-.992h13.89c.551 0 .993.441.993.992v-.238a.989.989 0 0 0-.992-.992zm0 0" fill="#fff" fill-opacity=".392"/><path d="M3.969 20.293v.246c0 .273.222.496.496.496h14.883a.494.494 0 0 0 .496-.496v-.246a.494.494 0 0 1-.496.496H4.465a.497.497 0 0 1-.496-.496zm0 0" fill-opacity=".235"/><path d="M4.96 17.988c-.585 0-1.062.477-1.062 1.063v1.488c0 .313.254.566.567.566h14.883a.567.567 0 0 0 .566-.566v-1.488c0-.586-.473-1.063-1.062-1.063zm0 .14h13.892c.515 0 .921.411.921.923v1.488a.422.422 0 0 1-.425.426H4.465a.422.422 0 0 1-.426-.426v-1.488c0-.512.41-.922.922-.922zm0 0" fill="#212121"/><path d="M2.48 3.223a.989.989 0 0 0-.992.992v.258c0-.551.442-.993.992-.993h18.856c.547 0 .992.442.992.993v-.258a.991.991 0 0 0-.992-.992zm0 0" fill="#fff" fill-opacity=".392"/><path d="M2.48 3.094c-.585 0-1.062.476-1.062 1.062v15.875c0 .59.477 1.067 1.062 1.067h18.856c.586 0 1.062-.477 1.062-1.067V4.156c0-.586-.476-1.062-1.062-1.062zm0 .14h18.856c.512 0 .922.41.922.922v15.875a.92.92 0 0 1-.922.926H2.48a.92.92 0 0 1-.921-.926V4.156c0-.511.41-.922.921-.922zm0 0" fill="#212121"/></svg>
